X:1
T:Christ Receiveth Sinful Men
T:Christ Receiveth Sinful Men
T:James McGranahan, 1883
T:Erdmann Neumeister, 1718
T:Public Domain Courtesy of the Cyber Hymnal™
T:Public Domain Courtesy of the Cyber Hymnal™
C:James McGranahan, 1883
Z:Public Domain
Z:Courtesy of the Cyber Hymnal™
%%score ( 1 2 ) 3
L:1/8
Q:1/4=105
M:3/4
K:D
V:1 treble 
V:2 treble 
V:3 bass 
V:1
 [DF]>[EG] | [FA]3 [GB] [DF]>[GB] | [FA]4 [FA]>[Fd] | [Ec]3 [GB] [FA]>[EG] | [DF]4 [DF]>[EG] | %5
w: 1.~Sin- ners|Je- sus will re-|ceive; Sound this|word of grace to|all Who the|
w: 2.~Come, and|He will give you|rest; Trust Him,|for His Word is|plain; He will|
w: 3.~Now my|heart con- demns me|not, Pure be-|fore the law I|stand; He who|
w: 4.~Christ re-|ceiv- eth sin- ful|men, Ev- en|me with all my|sin; Purged from|
 [FA]3 [GB] [DF]>[GB] | [FA]4 [FA]>[Fd] | [Ec]3 [FA] [GB]>[Gc] | [Fd]4 || %9
w: heav- enly path- way|leave, All who|lin- ger, all who|fall.|
w: take the sin- ful-|est; Christ re-|ceiv- eth sin- ful|men.|
w: cleansed me from all|spot, Sa- tis-|fied its last de-|mand.|
w: ev- ery spot and|stain, Heaven with|Him I en- ter|in.|
[M:12/8]"^Refrain" ([DF][EG])[FA] | [GB]6- [GB]2 [Bd] [Bd][Ac][GB] | [FA]6- [FA]3 (AB)F | %12
w: |||
w: |||
w: Sing * it|o’er * and o- ver a-|gain; * Christ * re-|
w: |||
 A6- A2 A (AB)F | A6- A3 ([DF][EG])[FA] | ([GB]6- [GB][Bd])[Bd] | ([Bd][Ac])[GB] | %16
w: ||||
w: ||||
w: ceiv- * eth sin- * ful|men; * Make * the|mes- * * sage|clear * and|
w: ||||
 [FA]6- [FA]3 [Ad]2 [Ad] | [Ge]3- [Ge]2 [Ge] [Fd]3 c3 | [Fd]4 |] %19
w: |||
w: |||
w: plain: * Christ re-|ceiv- * eth sin- ful|men.|
w: |||
V:2
 x2 | x6 | x6 | x6 | x6 | x6 | x6 | x6 | x4 ||[M:12/8] x3 | x12 | x9 F2 F | (G2 G G2 G F3) F2 x | %13
 (E2 F G2 F F3) x3 | x9 | x3 | x12 | x9 (E2 G) | x4 |] %19
V:3
 [D,A,]>[D,A,] | [D,D]3 [D,D] [D,D]>[D,D] | [D,D]4 [D,D]>[D,A,] | %3
 [A,,A,]3 [A,,A,] [A,,A,]>[A,,A,] | [D,A,]4 [D,A,]>[D,A,] | [D,D]3 [D,D] [D,D]>[D,D] | %6
 [D,D]4 [D,D]>[D,A,] | [A,,A,]3 [A,,A,] [A,,A,]>[A,,A,] | [D,A,]4 ||[M:12/8] z3 | %10
 [G,D]2 [G,D] [G,D]2 [G,D] [G,D]2 z z3 | [D,D]2 [D,D] [D,D]2 [D,D] [D,D]3 [D,D]2 [D,D] | %12
 [E,C]2 [E,C] [A,,C]2 [A,,C] [D,D]3 [D,D]2 [D,D] | [A,,C]2 [A,,D] [A,,E]2 [A,,E] [D,D]3 z3 | %14
 [G,D]2 [G,D] [G,D]2 [G,D] [G,D]3 | z3 | [D,D]2 [D,D] [D,D]2 [D,D] [D,D]3 [F,=C]2 [F,C] | %17
 [G,B,]3 [E,B,]3 A,3 [A,,A,]3 | [D,A,]4 |] %19

